X: 10176
T: Dinny Delaney's
R: slide
M: 12/8
K: Dmixolydian
|:A2D D3 A2G EFG|A2D D3 G2A GED|A2D D3 c2d e2d|dcA AGE G2A GED:|
|:dcA AGE c3 ABc|dcA AGE G2A GED|dcA AGE c2d e2d|dcA AGE G2A GED:|
|:A2D D3 A2B G2B|A2B G2A E3 GED|A2D D3 c2d e2d|dcA AGE G2A GED:|
|:dcA AGE c3 ABc|dcA AGE G2A GED|dcA AGE c2d e2d|dcA AGE G2A GED:|

